!!!!SEGMENT: pl-wtm--a-43-185-99--001-003_fitelberg-grzegorz--piec-piesni-op-21-no-3-pozegnanie-i-zegnalem-cie-bez-konca.krn
!!!cenid: 19xx:93
!!!COM: Fitelberg, Grzegorz
!!!COM-rismID: pe41023683
!!!CDT: 1879-1953
!!!CNT: Polish
!!!GTL: Pięć pieśni Op. 21
!!!OTL: No. 3. Pożegnanie/I żegnałem cię bez końca
!!!OMV: 003
!!!PDT:
!!!AGN: Secular; Song
!!!YEC: Copyright 2022 Narodowy Instytut Fryderyka Chopina (https://polishscores.org)
!!!YEM: License CC-BY-4.0 (https://creativecommons.org/licenses/by/4.0)
!!!SMS-siglum: PL-Wtm
!!!SMS-shelfmark: A.43.185/99
!!!SMS-variant:
!!!SMS-altvar:
!!!SMS-shelfwork: 001-003 G
!!!NIFC-rismSourceID: 1001162746
!!!NIFC-rismChildID: 1001162746
!!!NIFC-islandoraID: pl-wtm:43141
!!!URL-pdf-islandora: https://repozytorium.nifc.pl/islandora/object/pl-wtm%3A43141/datastream/PDF/view
!!!URL-scan: https://polish.musicsources.pl/pl/lokalizacje/galeria/druki-muzyczne/22420/5 @EN{Scan on Polish Music Sources Website} @PL{Skany w portalu Dziedzictwo Muzyki Polskiej w otwartym dostępie}
!!!IIIF:
!!!ONB-nifc:
!!!OMD: Poco mosso, quassi allegretto.
!!!AIN: 1 piano 1 vox
!!!key: none
**kern	**kern	**dynam	**kern	**text	**text	**dynam
*part2	*part2	*part2	*part1	*part1	*part1	*part1
*staff3	*staff2	*	*staff1	*staff1	*staff1	*
*ICklav	*ICklav	*	*ICvox	*	*	*
*Ipiano	*Ipiano	*	*Ivox	*	*	*
*I"Klavier	*I"Klavier	*	*I"Singstimme.	*	*	*
*clefF4	*clefG2	*	*clefG2	*	*	*
*k[]	*k[]	*	*k[]	*	*	*
*g:	*g:	*	*g:	*	*	*
*M3/4	*M3/4	*	*M3/4	*	*	*
*	*^	*	*	*	*	*
!LO:TUP:a	!	!	!	!	!	!	!
12r	4r	4ryy	.	4r	.	.	.
[<12B-X\L	.	.	p	.	.	.	.
12B-\J_ [12d	.	.	.	.	.	.	.
*	*	*Xtuplet	*	*	*	*	*
!	!	!	!	!	!	!	!LO:DY:a
4B-\_ 4d_	(12f#X/L	6f#\	.	8f#X/	Und	I	p
.	12dd/	.	.	.	.	.	.
.	.	.	.	8g/	der	że-	.
.	12g/J	12g\	.	.	.	.	.
=1	=1	=1	=1	=1	=1	=1	=1
*	*tuplet	*	*	*	*	*	*
!	!	!	!	!	!	!	!LO:HP:a
((4B-\] 4d]	12e/L	4e\	<	8a/	Ab-	-gna-	<
.	12a/	.	.	.	.	.	.
.	.	.	.	8b-X\	-schied	-łem	.
.	12b-X/J	.	.	.	.	.	.
*	*Xtuplet	*	*	*	*	*	*
(<4A\)) [4c	12bn/L	12ryy	.	8bn\	war	cię	.
.	12f/	6f\	.	.	.	.	.
.	.	.	.	8cc\	kein	bez	.
.	12cc/J	.	.	.	.	.	.
(<4A-X\) 4c_	12ee-X/L	4ryy	[	[4ee-X\	En-	koń-	[
.	12f/	.	.	.	.	.	.
.	[>12f#X/J	.	.	.	.	.	.
!!LO:LB:g=original
=2	=2	=2	=2	=2	=2	=2	=2
*^	*	*	*	*	*	*	*
!	!	!	!	!	!	!	!	!LO:HP:a
(4c/])	2G\	12f#/L]	2ryy	>	4ee-\]	.	.	>
.	.	12f#X/	.	.	.	.	.	.
.	.	12g/J	.	.	.	.	.	.
4d/)	.	12cc/L	.	.	4cc\	-de,	-ca	]
.	.	12g/	.	.	.	.	.	.
.	.	12g#X/J)	.	]	.	.	.	.
!	!	!	!	!	!	!	!	!LO:HP:a
(4e-X/	(4G-X\	(12c/L	4c\	<	8g#X/	und	chło-	<
.	.	12g#/	.	.	.	.	.	.
.	.	.	.	.	8a/	mein	-nąc	.
.	.	12a/J	.	[	.	.	.	[[
=3	=3	=3	=3	=3	=3	=3	=3	=3
(4An/)	(4F\)	12bn/L	12ryy	.	8b\	Blick	o-	.
.	.	12d/	6d\	.	.	.	.	.
.	.	.	.	.	8cc\	be-	-kiem	.
.	.	[12cc/J	.	.	.	.	.	.
!	!	!	!	!	!	!	!	!LO:HP:a
(2G#X/)	8E\L)	12cc/L]	12ryy	.	8cc\	-weg-	po-	>
.	.	12c#X/	6c#\	.	.	.	.	.
.	8AAA\J	.	.	.	8cc#X\	-te	-stać	.
.	.	12cc#X/J	.	.	.	.	.	.
.	[4AA\	12g#X/L	12ryy	.	4cc#\	dich;	twą.	]
.	.	12cc#/	6cc#\	.	.	.	.	.
.	.	12ccc#X/J	.	.	.	.	.	.
=4	=4	=4	=4	=4	=4	=4	=4	=4
!	!	!LO:TX:t=P:problem=mixed beam	!	!	!	!	!	!
4F#X/)	2AA\_	4ff#X/	12ff#\L	<	4r	.	.	.
.	.	.	12c#X</	.	.	.	.	.
.	.	.	12f#X\J)	.	.	.	.	.
!	!	!LO:TX:t=P:problem=mixed beam	!	!	!LO:TX:a:i:t=dolcissimo	!	!	!LO:DY:a
4ryy	.	&(4b#X/	12b#\L	.	4b#X\	und	Na	<
.	.	.	12B#X\	.	.	.	.	.
.	.	.	NNNN[12E#X</J	.	.	.	.	.
4E#X/NNNN]	8AA\]	12e#X/L	4ryy	.	4cc#X\	es	mem	.
.	.	12c#X/	.	.	.	.	.	.
.	NNN(8AAA#X\	.	.	.	.	.	.	.
.	.	12cc#X/J	.	[[	.	.	.	.
*v	*v	*	*	*	*	*	*	*
*	*v	*v	*	*	*	*	*
!!LO:LB:g=original
=5	=5	=5	=5	=5	=5	=5
!LO:TUP:a	!	!	!	!	!	!
12AA#X\L	4ee\&)	.	2ee\	war,	ser-	.
!	!	!LO:HP:t=cresc._:ext=ud	!	!	!	!
12E#X\	.	<	.	.	.	.
12F#X\J	.	.	.	.	.	.
*	*tuplet	*	*	*	*	*
8en\	12ryy	.	.	.	.	.
.	12e#X/L	.	.	.	.	.
8r	.	.	.	.	.	.
.	12f#X/J	.	.	.	.	.
*	*Xtuplet	*	*	*	*	*
!	!LO:TX:t=P:problem=mixed beam	!	!	!	!	!
8r	12ee\L	.	4ee\	als	-cu	[
.	12G</	.	.	.	.	.
(>8BBB\L	.	.	.	.	.	.
.	(<12g\JNNN)	[[	.	.	.	.
=6	=6	=6	=6	=6	=6	=6
!	!	!	!	!	!	!LO:DY:a:t=poco f
!	!	!LO:DY:t=poco f	!	!	!	!LO:HP:a
8BB\J)	(((2e^>/) [>2a-X 2ee	f >	4.ee\	leg-	ser-	f >
(8CC\L	.	.	.	.	.	.
8C\	.	.	.	.	.	.
8A-X\	.	.	8a-X/	-te	-ce	.
8c\J)	8e-X/L))) 8a-] 8ee-X	.	4a-/	sich	twe	]]
([8DD-X\L	[8f/J	.	.	.	.	.
=7	=7	=7	=7	=7	=7	=7
*	*^	*	*	*	*	*
!	!	!	!	!	!	!	!LO:HP:a:t=sempre dim.
8DD-\]	(2ee-X/	2f\_	]	2a-X/	still	drża-	>
!	!	!	!LO:HP:t=dim.	!	!	!	!
8D-X\	.	.	>	.	.	.	.
8A-X\	.	.	.	.	.	.	.
8d-X\J)	.	.	.	.	.	.	.
8r	(4dd-X/)	8f\L]	.	4b-X\	dein	-ło	.
(8EE-X\L	.	[8e-X\J	.	.	.	.	.
*	*v	*v	*	*	*	*	*
!!LO:PB:g=original
=8	=8	=8	=8	=8	=8	=8
*M4/4	*M4/4	*	*M4/4	*	*	*
*	*^	*	*^	*	*	*
*	*	*	*^	*	*	*	*	*
!	!	!	!LO:HP:t=dim._:ext=ud	!LO:HP:a	!LO:TX:a:i:t=rit._:ext=ud	!	!	!	!LO:HP:a
!	!	!	!	!LO:DY:rj	!	!	!	!	!
8A-X\	(4dd/)	(4.e-\]	>	p <	4b-X/	4r	Herz	.	<
8E-X\J)	.	.	.	.	.	.	.	.	.
8r	(2cc/)	.	.	[	4cc\	2.ryy	in	ci-	.
!	!	!LO:N:vis=(4.dn\)	!	!LO:HP:a	!	!	!	!	!
(8FF\L	.	(2dn\)	.	>	.	.	.	.	[
!	!	!	!	!	!	!	!	!	!LO:HP:a
8A-\	.	.	.	.	4cc\	.	mei-	-che-	>
8F\J)	.	.	.	.	.	.	.	.	.
8r	[4ddn/)	.	.	.	4a-X/	.	-ne	-mi	]
*8ba	*	*	*	*	*	*	*	*	*
(8EEE-X\L	.	[8d-X\)	.	]	.	.	.	.	.
*X8ba	*	*	*	*	*	*	*	*	*
*	*	*	*v	*v	*	*	*	*	*
*	*v	*v	*	*	*	*	*	*
*	*	*	*v	*v	*	*	*
=9	=9	=9	=9	=9	=9	=9
*M3/4	*M3/4	*	*M3/4	*	*	*
*	*^	*	*	*	*	*
!	!	!	!	!	!	!	!LO:HP:a
8EE-X\	(2dd/]	2.d-\_	.	4cc\	Hän-	łza-	>
[8E-X\	.	.	.	.	.	.	.
8E-\_> [>8G	.	.	.	4b-X\	-de.	-mi.	]
8E-\J_ 8G_ [8e-X	.	.	.	.	.	.	.
4E-\_ 4G_ 4e-_	[4ee-X/)	.	.	4r	.	.	.
=10	=10	=10	=10	=10	=10	=10	=10
*^	*	*	*	*	*	*	*
4E-;<\]) 4G] 4e-]	2ryy	4ee-;/]	4d-\]	.	4r;	.	.	.
4r	.	4r	4ryy	]	4r	.	.	.
!	!	!	!	!	!	!	!	!LO:DY:a:rj
!	!	!	!	!	!LO:TX:a:i:t=a tempo	!	!	!LO:HP:a
(6c#X/	[4D#X\	(8an/L	4f#X\	.	8an/	A-	Kie-	p <
.	.	8bn/J	.	.	8bn\	-ber	-dy	.
12B/	.	.	.	.	.	.	.	.
*	*	*v	*v	*	*	*	*	*
!!LO:LB:g=original
=11	=11	=11	=11	=11	=11	=11	=11
!	!	!	!LO:HP:t=molto cresc._:ext=s:ext=ud	!	!	!	!
4A#X/)	(4D#\]	12b#X/L	<	8b#X\	wenn	wró-	.
.	.	12f#X/	.	.	.	.	.
.	.	.	.	8cc#X\	du	-cisz	.
.	.	12cc#X/J	.	.	.	.	.
*Xtuplet	*	*	*	*	*	*	*
!LO:TX:t=P:problem=mixed beam	!	!LO:TX:a:i:t=espressivo	!	!	!	!	!
12C#X/L	(4C#\)	4cc##X~>/	.	8dd\	wie-	do	[
12An/	.	.	.	.	.	.	.
!	!	!	!	!	!	!	!LO:HP:a
.	.	.	.	8f#X/	-der-	mnie	>
12f#y>\J	.	.	.	.	.	.	.
!LO:TX:t=P:problem=mixed beam	!	!	!	!	!	!	!
16BB/LL	4BB\)	4dd#X~/	.	4f#/	-kehrst,	znów	]
16A/	.	.	.	.	.	.	.
16c#X/	.	.	.	.	.	.	.
NNNN[>16f#>\JJ	.	.	.	.	.	.	.
=12	=12	=12	=12	=12	=12	=12	=12
*	*	*^	*	*	*	*	*
*	*	*	*^	*	*	*	*	*
!	!	!	!	!	!	!	!	!	!LO:HP:a:t=cresc._:ext=ud
8r	2ryy	4ee~/	2.f#X\NNNN]	2ee\	.	8e#X/	will	rąk	<
(8BBB\L	.	.	.	.	.	8f#X/	ich	ca-	.
8BB\	.	2ee#X~/	.	.	.	8g#X/	dei-	-ło-	.
8A\	.	.	.	.	.	8a/	-ne	-wać	.
8c#X\	(<4c#/	.	.	4dd#X\	.	8b#X\	Hand	twych	.
8a\J	.	.	.	.	.	8cc#X\	nicht	nie	.
*	*	*	*v	*v	*	*	*	*	*
!!LO:LB:g=original
=13	=13	=13	=13	=13	=13	=13	=13	=13
4c/)	8cn\L)	4f#X~/ 4ff#X	2.dd#X\	.	4.ff#X\	küs-	bę-	.
.	(>[8BBB\J	.	.	.	.	.	.	.
16BBB\LL]	2ryy	4gn~/ 4ggn	.	.	.	.	.	.
16BB\	.	.	.	.	.	.	.	.
16A\	.	.	.	.	4dd#X\	-sen;	-dę	.
16c\JJ	.	.	.	.	.	.	.	.
12d#X\L)	.	4a~/) 4aa	.	.	.	.	.	.
(12BBB-X\	.	.	.	.	.	.	.	.
.	.	.	.	.	8r	.	.	.
12BB-X\J	.	.	.	.	.	.	.	.
=14	=14	=14	=14	=14	=14	=14	=14	=14
!	!	!	!	!LO:DY:rj	!LO:TX:a:i:t=molto espressivo	!	!	!LO:DY:a:rj
8G\L) 8e-X 8g	4ryy	(12b-X\L 12ee-X 12bb-X	4ryy	[ f	8gg\	will	Z o-	[ f
.	.	12e-X\	.	.	.	.	.	.
([<8BB-X\J	.	.	.	.	8ee-X\	es	-czu	.
.	.	12g\J	.	.	.	.	.	.
(4An/)	2BB-\_	4bn/	12bn\L	.	4bn\	nur	twych	.
.	.	.	12e-\	.	.	.	.	.
.	.	.	12g\J	.	.	.	.	.
4A-X/	.	4cc/	12cc\L	.	8r	.	.	.
.	.	.	12d\	.	.	.	.	.
!	!	!	!	!	!	!	!	!LO:HP:a
.	.	.	.	.	8cc\	em-	wy-	<
.	.	.	12f#X\J	.	.	.	.	[[
=15	=15	=15	=15	=15	=15	=15	=15	=15
!	!	!	!	!	!	!	!	!LO:HP:a
4G/	2.BB-\_	4ee-X/	12ee-\L	.	4.ee-X\	-pfin-	-czy-	>
!	!	!	!	!LO:HP:t=sempre dim._:ext=s:ext=ud	!	!	!	!
.	.	.	12d-X\	>	.	.	.	.
.	.	.	12fn\J	.	.	.	.	.
4G-X/	.	4g#X/	12g#\L	.	.	.	.	.
.	.	.	12c\	.	.	.	.	.
.	.	.	.	.	8g#X/	-den	-tam	.
.	.	.	12e\J	.	.	.	.	]
!	!	!	!	!	!	!	!	!LO:HP:a
4F/	.	4a/	12a\L	.	8g#/	müs-	na-	<
.	.	.	12c-X\	.	.	.	.	.
.	.	.	.	.	8a/	-sen,	-przód	[[
.	.	.	12e-X\J	.	.	.	.	.
!!LO:LB:g=original
=16	=16	=16	=16	=16	=16	=16	=16	=16
*	*	*	*	*	*	*	*	*^
!	!	!	!	!	!	!	!	!LO:HP:a:t=sempre dim._:ext=s:ext=ud	!
4F-X/	2.BB-\]	4cc/	12cc\L	.	8cc\	wie	czy	>	.
.	.	.	12B-X\	.	.	.	.	.	.
.	.	.	.	.	8f#X/	du	mi	.	.
.	.	.	12d\J	.	.	.	.	.	.
4E-X/	.	2f#X/	12f#\L	.	4f#/	dei-	wier-	.	.
.	.	.	12B--\	.	.	.	.	.	.
.	.	.	[12d-X\J	.	.	.	.	.	.
!	!	!	!	!	!	!	!	!	!LO:HP:a
4D/)	.	.	12d-\L]	.	4f#/	-nem	-ne	.	<[
.	.	.	12A-X\	.	.	.	.	.	.
.	.	.	12c\J)	.	.	.	.	.	.
=17	=17	=17	=17	=17	=17	=17	=17	=17	=17
!	!	!	!	!	!LO:TX:a:t=dolciss.	!	!	!	!LO:HP:a
2.EEE-X/ 2.EE-X	2ryy	12r	NN(2c-X~<\	] p	2cc-X\	Her-	ser-	.	>
.	.	(12F#X/L	.	.	.	.	.	.	.
.	.	12d/J	.	>	.	.	.	.	.
.	.	12f#X/L	.	.	.	.	.	.	.
.	.	12d/	.	.	.	.	.	.	.
.	.	12dd/J	.	.	.	.	.	.	.
.	(>(>[<4B-X/NN)	12f#/L	4ryy	.	4b-X\	-zen	-ce	.	]
.	.	12ff#X/)	.	.	.	.	.	.	.
.	.	(>(>[<12g/J	.	]	.	.	.	.	.
*	*	*	*	*	*	*	*	*v	*v
*	*	*v	*v	*	*	*	*	*
=18	=18	=18	=18	=18	=18	=18	=18
!	!	!	!	!	!	!	!LO:HP:a
2.B-/])) 2.e-X 2.b-X	4r	2.g;\])) 2.ee-X 2.gg	pp > ]]	2.b-X;\	wehrst.	twe.	>
.	2EEE-X;/	.	.	.	.	.	]]
*v	*v	*	*	*	*	*	*
==	==	==	==	==	==	==
*-	*-	*-	*-	*-	*-	*-
!!!system-decoration: s1{(s2,s3)}
!!!RDF**kern: < = below
!!!RDF**kern: > = above
!!!RDF**kern: N = linked
!!!RDF**kern: NN = linked
!!!RDF**kern: NNN = linked
!!!RDF**kern: NNNN = linked
!!!ENC: Andrzej Gręziak
!!!END: 2023-10-03
!!!EED: Marta Chmielewska
!!!EEV: 2023-10-18
